coreui/free/cil-expand-up.svg

<svg xmlns="http://www.w3.org/2000/svg" viewBox="0 0 512 512">
  <rect width="480" height="32" x="16" y="467" fill="var(--ci-primary-color, currentColor)" class="ci-primary"/>
  <path fill="var(--ci-primary-color, currentColor)" d="M16,147H496V19H16ZM48,51H464v64H48Z" class="ci-primary"/>
  <path fill="var(--ci-primary-color, currentColor)" d="M256.077,211.777,96,379.079V419H416V381.14ZM132.709,387,255.923,258.224,377.522,387Z" class="ci-primary"/>
</svg>

<svg viewBox="0 0 512 512" xmlns="http://www.w3.org/2000/svg"><g><path d="M16 467h480v32H16Z"/><path d="M16 147h480V19H16Zm32-96h416v64H48Z"/><path d="M256.077 211.77L96 379.07v39.92h320v-37.86Zm-123.37 175.22l123.21-128.78L377.5 386.98Z"/></g></svg>
